brandFactory_export/1.Light/Grupo_1ight.svg

<?xml version="1.0" encoding="UTF-8"?>
<svg width="24px" height="24px" viewBox="0 0 24 24" version="1.1" xmlns="http://www.w3.org/2000/svg" xmlns:xlink="http://www.w3.org/1999/xlink">
    <title>1.Light/Grupo_1ight</title>
    <g id="Symbols" stroke="none" stroke-width="1" fill="none" fill-rule="evenodd">
        <g id="1.Light/Grupo_1ight" fill="#5CB615" fill-rule="nonzero">
            <path d="M10.5613445,1.37815126 C10.292437,1.63697479 10.1579832,2.06722689 10.1579832,2.65882353 C10.1579832,3.25042017 10.292437,3.67731092 10.5579832,3.93613445 C10.8168067,4.18487395 11.2369748,4.31260504 11.8084034,4.31260504 C12.3798319,4.31260504 12.8,4.18487395 13.0621849,3.93613445 C13.3310924,3.68067227 13.4655462,3.25042017 13.4655462,2.66218487 C13.4655462,2.07058824 13.3277311,1.64033613 13.0588235,1.38151261 C12.7966387,1.12941176 12.3764706,1.00168067 11.8084034,1.00168067 C11.2403361,1.00168067 10.8201681,1.12941176 10.5613445,1.37815126 L10.5613445,1.37815126 Z M11.8084034,5.31092437 C10.9714286,5.31092437 10.3193277,5.08907563 9.86890756,4.65546218 C9.39831933,4.20168067 9.15966387,3.53277311 9.15966387,2.65882353 C9.15966387,1.78487395 9.39831933,1.11260504 9.86890756,0.658823529 C10.3193277,0.221848739 10.9714286,0 11.8084034,0 C12.6453782,0 13.3008403,0.221848739 13.7546218,0.658823529 C14.2252101,1.11260504 14.4638655,1.78823529 14.4638655,2.65882353 C14.4638655,3.52941176 14.2252101,4.20168067 13.7546218,4.65546218 C13.3008403,5.08907563 12.6453782,5.31092437 11.8084034,5.31092437 Z M8.10420168,9.42184874 L8.10420168,9.60672269 L15.5226891,9.60672269 L15.5226891,9.42184874 C15.5226891,9.01848739 15.4386555,8.44705882 15.0386555,8.0302521 C14.594958,7.56638655 13.9159664,7.47226891 13.4285714,7.47226891 L10.194958,7.47226891 C9.70420168,7.47226891 9.02857143,7.5697479 8.58487395,8.0302521 C8.18487395,8.44369748 8.10420168,9.01848739 8.10420168,9.42184874 Z M7.40504202,10.6084034 C7.24033613,10.6084034 7.10252101,10.4739496 7.10252101,10.3058824 L7.10252101,9.42184874 C7.10252101,8.57815126 7.36470588,7.85546218 7.86218487,7.33781513 C8.40336134,6.77310924 9.21008403,6.47394958 10.1915966,6.47394958 L13.4252101,6.47394958 C14.4067227,6.47394958 15.2134454,6.77310924 15.7579832,7.33781513 C16.2554622,7.85882353 16.5210084,8.57815126 16.5210084,9.42184874 L16.5210084,10.3058824 C16.5210084,10.4705882 16.3865546,10.605042 16.2218487,10.6084034 L7.40504202,10.6084034 Z M3.45882353,14.3932773 C3.19327731,14.6521008 3.05882353,15.0823529 3.05882353,15.6739496 C3.05882353,16.2655462 3.19327731,16.692437 3.45882353,16.9512605 C3.71764706,17.2 4.13781513,17.3277311 4.7092437,17.3277311 C5.28067227,17.3277311 5.70084034,17.2033613 5.95966387,16.9512605 C6.22857143,16.692437 6.36302521,16.2655462 6.36302521,15.6773109 C6.36302521,15.0890756 6.22857143,14.6588235 5.95966387,14.4 C5.69747899,14.1478992 5.27731092,14.0201681 4.7092437,14.0201681 C4.13781513,14.0168067 3.71764706,14.1445378 3.45882353,14.3932773 L3.45882353,14.3932773 Z M4.70588235,18.3260504 C3.86890756,18.3260504 3.21680672,18.1042017 2.76302521,17.6705882 C2.29243697,17.2168067 2.05714286,16.5478992 2.05714286,15.6739496 C2.05714286,14.8033613 2.29579832,14.1310924 2.76302521,13.6773109 C3.21344538,13.2403361 3.86890756,13.0184874 4.70588235,13.0184874 C5.54285714,13.0184874 6.19831933,13.2403361 6.6487395,13.6773109 C7.11932773,14.1310924 7.35798319,14.8067227 7.35798319,15.6773109 C7.35798319,16.5478992 7.11932773,17.2201681 6.6487395,17.6739496 C6.19831933,18.1042017 5.54621849,18.3260504 4.70588235,18.3260504 Z M8.42016807,22.6218487 L8.42016807,22.4369748 C8.42016807,22.0336134 8.33613445,21.4621849 7.93613445,21.0487395 C7.49243697,20.5882353 6.81344538,20.4907563 6.32268908,20.4907563 L3.09243697,20.4907563 C2.60168067,20.4907563 1.92268908,20.5882353 1.48571429,21.0487395 C1.08571429,21.4655462 1.00504087,22.0336134 1.00504087,22.4403361 L1.00504087,22.6252101 C1.00168067,22.6218487 8.42016807,22.6218487 8.42016807,22.6218487 Z M6.32268908,19.4890756 C7.30756303,19.4890756 8.11428571,19.7882353 8.65546218,20.3529412 C9.15630252,20.8739496 9.41848739,21.5966387 9.41848739,22.4369748 L9.41848739,23.3210084 C9.41848739,23.4890756 9.28403361,23.6235294 9.11596639,23.6235294 L0.302521008,23.6235294 C0.134453782,23.6235294 0,23.4890756 0,23.3210084 L0,22.4369748 C0,21.5932773 0.262184874,20.8739496 0.759663866,20.3529412 C1.30084034,19.7882353 2.10756303,19.4857143 3.08907563,19.4857143 L6.32268908,19.4890756 L6.32268908,19.4890756 Z M17.6638655,14.3865546 C17.3983193,14.6453782 17.2638655,15.0756303 17.2638655,15.6672269 C17.2638655,16.2588235 17.3983193,16.6857143 17.6638655,16.9411765 C17.9226891,17.189916 18.3428571,17.3176471 18.9109244,17.3176471 C19.4823529,17.3176471 19.902521,17.189916 20.1647059,16.9411765 C20.4336134,16.6823529 20.5680672,16.2554622 20.5680672,15.6672269 C20.5680672,15.0756303 20.4336134,14.6487395 20.1647059,14.3865546 C19.902521,14.1378151 19.4823529,14.010084 18.9109244,14.010084 C18.3428571,14.010084 17.9226891,14.1378151 17.6638655,14.3865546 L17.6638655,14.3865546 Z M16.9680672,17.6638655 C16.497479,17.210084 16.2621849,16.5411765 16.2621849,15.6672269 C16.2621849,14.7932773 16.497479,14.1210084 16.9680672,13.6672269 C17.4184874,13.2302521 18.0739496,13.0084034 18.907563,13.0084034 C19.7445378,13.0084034 20.4,13.2302521 20.8537815,13.6672269 C21.3277311,14.1210084 21.5630252,14.7932773 21.5630252,15.6672269 C21.5630252,16.5378151 21.3243697,17.210084 20.8537815,17.6638655 C20.4,18.097479 19.7478992,18.3193277 18.907563,18.3193277 C18.0739496,18.3193277 17.4184874,18.097479 16.9680672,17.6638655 Z M22.6252101,22.6151261 L22.6252101,22.4302521 C22.6252101,22.0268908 22.5411765,21.4554622 22.1411765,21.0420168 C21.697479,20.5815126 21.0184874,20.4840336 20.5277311,20.4840336 L17.297479,20.4840336 C16.8067227,20.4840336 16.1310924,20.5815126 15.6907563,21.0420168 C15.2907563,21.4588235 15.210084,22.0268908 15.210084,22.4336134 L15.210084,22.6184874 L22.6252101,22.6184874 L22.6252101,22.6151261 Z M22.8571429,20.3462185 C23.3579832,20.8672269 23.6235294,21.5865546 23.6235294,22.4302521 L23.6235294,23.3142857 C23.6235294,23.4823529 23.4890756,23.6168067 23.3210084,23.6168067 L14.507563,23.6168067 C14.3394958,23.6168067 14.205042,23.4823529 14.205042,23.3142857 L14.205042,22.4302521 C14.205042,21.5865546 14.4672269,20.8638655 14.9647059,20.3462185 C15.5058824,19.7815126 16.312605,19.4823529 17.2941176,19.4823529 L20.5277311,19.4823529 C21.5092437,19.4823529 22.3159664,19.7815126 22.8571429,20.3462185 Z M14.7865546,17.0756303 C14.6420168,17.3109244 14.3361345,17.3848739 14.1008403,17.2436975 L11.7915966,15.8319328 L9.48235294,17.2436975 C9.24705882,17.3882353 8.93781513,17.3142857 8.79663866,17.0789916 C8.65210084,16.8436975 8.72605042,16.5344538 8.96134454,16.3932773 L11.2941176,14.9647059 L11.2941176,12.2554622 C11.2941176,11.9798319 11.5193277,11.7546218 11.794958,11.7546218 C12.0705882,11.7546218 12.2957983,11.9798319 12.2957983,12.2554622 L12.2957983,14.9647059 L14.6252101,16.389916 C14.8537815,16.5310924 14.9277311,16.8369748 14.7865546,17.0756303 Z" id="Grupo_1ight"></path>
        </g>
    </g>
</svg>

<svg width="24" height="24" viewBox="0 0 24 24" xmlns="http://www.w3.org/2000/svg"><path d="M10.561 1.378c-.269.259-.403.69-.403 1.28 0 .592.134 1.02.4 1.278.259.249.679.377 1.25.377.572 0 .992-.128 1.254-.377.27-.255.404-.686.404-1.274 0-.591-.138-1.022-.407-1.28-.262-.253-.683-.38-1.25-.38-.569 0-.989.127-1.248.376zm1.247 3.933c-.837 0-1.489-.222-1.94-.656-.47-.453-.708-1.122-.708-1.996 0-.874.238-1.546.709-2C10.319.222 10.97 0 11.809 0c.836 0 1.492.222 1.946.659.47.454.709 1.13.709 2 0 .87-.239 1.543-.71 1.996-.453.434-1.109.656-1.946.656zM8.104 9.42v.186h7.419v-.185c0-.404-.084-.975-.484-1.392-.444-.464-1.123-.558-1.61-.558h-3.234c-.49 0-1.166.098-1.61.558-.4.414-.48.988-.48 1.392zm-.699 1.187a.303.303 0 01-.302-.302v-.884c0-.844.262-1.567.76-2.084.54-.565 1.347-.864 2.329-.864h3.233c.982 0 1.788.3 2.333.864.497.52.763 1.24.763 2.084v.884c0 .165-.134.299-.3.302H7.406zm-3.946 3.785c-.266.26-.4.69-.4 1.28 0 .593.134 1.02.4 1.278.259.249.679.377 1.25.377.572 0 .992-.125 1.25-.377.27-.259.404-.685.404-1.274 0-.588-.134-1.018-.403-1.277-.263-.252-.683-.38-1.25-.38-.572-.003-.992.125-1.251.373zm1.247 3.933c-.837 0-1.49-.222-1.943-.655-.47-.454-.706-1.123-.706-1.997 0-.87.239-1.543.706-1.997.45-.437 1.106-.659 1.943-.659s1.492.222 1.943.66c.47.453.709 1.129.709 2 0 .87-.239 1.542-.71 1.996-.45.43-1.102.652-1.942.652zm3.714 4.296v-.185c0-.403-.084-.975-.484-1.388-.444-.46-1.123-.558-1.613-.558h-3.23c-.491 0-1.17.097-1.607.558-.4.417-.481.985-.481 1.391v.185c-.003-.003 7.415-.003 7.415-.003zm-2.097-3.133c.985 0 1.791.3 2.332.864.501.52.763 1.244.763 2.084v.884a.301.301 0 01-.302.303H.303A.301.301 0 010 23.32v-.884c0-.844.262-1.563.76-2.084.54-.565 1.348-.867 2.33-.867l3.233.003zm11.34-5.102c-.265.258-.4.689-.4 1.28 0 .592.135 1.019.4 1.274.26.249.68.377 1.248.377.571 0 .992-.128 1.254-.377.269-.259.403-.686.403-1.274 0-.591-.134-1.018-.403-1.28-.262-.25-.683-.377-1.254-.377-.568 0-.988.128-1.247.377zm-.695 3.277c-.47-.454-.706-1.123-.706-1.997 0-.874.235-1.546.706-2 .45-.437 1.106-.659 1.94-.659.837 0 1.492.222 1.946.66.474.453.709 1.125.709 2 0 .87-.239 1.542-.71 1.996-.453.433-1.105.655-1.945.655-.834 0-1.49-.222-1.94-.655zm5.657 4.951v-.185c0-.403-.084-.975-.484-1.388-.444-.46-1.123-.558-1.613-.558h-3.23c-.491 0-1.167.098-1.607.558-.4.417-.48.985-.48 1.392v.184h7.414v-.003zm.232-2.269c.501.521.767 1.24.767 2.084v.884a.301.301 0 01-.303.303h-8.813a.301.301 0 01-.303-.303v-.884c0-.843.262-1.566.76-2.084.54-.564 1.348-.864 2.33-.864h3.233c.981 0 1.788.3 2.33.864zm-8.07-3.27a.502.502 0 01-.686.168l-2.31-1.412-2.309 1.412a.497.497 0 01-.685-.165.497.497 0 01.164-.686l2.333-1.428v-2.71a.502.502 0 011.002 0v2.71l2.33 1.425a.504.504 0 01.16.686z" fill="#5CB615" fill-rule="nonzero"/></svg>
